material/.icons/material/human-pregnant.svg

<svg xmlns="http://www.w3.org/2000/svg" viewBox="0 0 24 24"><path d="M9 4c0-1.11.89-2 2-2 1.11 0 2 .89 2 2 0 1.11-.89 2-2 2-1.11 0-2-.89-2-2m7 9c0-1.34-.83-2.5-2-3a3 3 0 00-3-3 3 3 0 00-3 3v7h2v5h3v-5h3v-4z"/></svg>

<?xml version="1.0" encoding="UTF-8"?><!DOCTYPE svg PUBLIC "-//W3C//DTD SVG 1.1//EN" "http://www.w3.org/Graphics/SVG/1.1/DTD/svg11.dtd"><svg xmlns="http://www.w3.org/2000/svg" xmlns:xlink="http://www.w3.org/1999/xlink" version="1.1" id="mdi-human-pregnant" width="24" height="24" viewBox="0 0 24 24"><path d="M9,4C9,2.89 9.89,2 11,2C12.11,2 13,2.89 13,4C13,5.11 12.11,6 11,6C9.89,6 9,5.11 9,4M16,13C16,11.66 15.17,10.5 14,10A3,3 0 0,0 11,7A3,3 0 0,0 8,10V17H10V22H13V17H16V13Z" /></svg>
